X:1
T:Saraband. SenH.008
T:Saraband. SenH.008
T:in Hand A
C:in Hand A
L:1/8
Q:1/4=100
M:3/4
K:G
V:1 treble 
V:1
"^Largo" g2 (ba) b2 | f2 a2 d2 | e2 (gf) g2 | d2 f2 B2 | c2 (ed) e2 | B2 d2 g2 | cB A3 G | G6 || %8
 g2 b2 g2 | d2 (fg) a2 | e2 B2 e2 | ^d2 (de) f2 | ^d2 f2 a2 | e2 (ga) b2 | A2 B2 ^d2 | e2 (ef) g2 | %16
 ^c2 a2 f2 | d2 (de) =f2 | B2 g2 d2 | c2 cd e2 | f2 g2 d2 | G2 ga b2 | cb a3 g | g6 |] %24

